src/lib/packages/icons/src/assets/filled/envelope-eye.svg

<svg width="24" height="24" viewBox="0 0 24 24" fill="none" xmlns="http://www.w3.org/2000/svg">
<path d="M18 13.25C18.584 13.25 19.1191 13.335 19.6011 13.486C19.7991 13.548 20 13.413 20 13.205V7C20 5 19 4 17 4H5C3 4 2 5 2 7V16C2 18 3 19 5 19H12.3181C12.5241 19 12.6531 18.801 12.6001 18.602C12.4061 17.883 12.5029 17.107 12.8899 16.45C13.5999 15.25 15.21 13.25 18 13.25ZM12.0291 12.179C11.7211 12.403 11.36 12.515 11 12.515C10.64 12.515 10.2779 12.403 9.97095 12.18L5.05908 8.60699C4.72408 8.36399 4.65004 7.89401 4.89404 7.55901C5.13704 7.22601 5.60489 7.149 5.94189 7.394L10.854 10.966C10.942 11.029 11.059 11.03 11.147 10.966L16.0591 7.394C16.3961 7.149 16.8639 7.22501 17.1069 7.55901C17.3509 7.89401 17.2769 8.36299 16.9419 8.60699L12.0291 12.179ZM21.8191 17.216C21.2741 16.299 20.049 14.75 18 14.75C15.951 14.75 14.7269 16.299 14.1809 17.216C13.9389 17.622 13.9389 18.128 14.1809 18.535C14.7259 19.452 15.951 21.001 18 21.001C20.049 21.001 21.2731 19.452 21.8191 18.535C22.0601 18.128 22.0601 17.622 21.8191 17.216ZM18.02 19.125C17.331 19.125 16.7649 18.565 16.7649 17.875C16.7649 17.185 17.32 16.625 18.01 16.625H18.02C18.71 16.625 19.27 17.185 19.27 17.875C19.27 18.565 18.71 19.125 18.02 19.125Z" fill="currentColor"/>
</svg>

<svg xmlns="http://www.w3.org/2000/svg" width="24" height="24" fill="none"><path fill="currentColor" d="M18 13.25c.584 0 1.12.085 1.601.236.198.062.399-.073.399-.281V7c0-2-1-3-3-3H5C3 4 2 5 2 7v9c0 2 1 3 3 3h7.318c.206 0 .335-.199.282-.398a2.8 2.8 0 0 1 .29-2.152c.71-1.2 2.32-3.2 5.11-3.2Zm-5.97-1.071a1.748 1.748 0 0 1-2.059.001L5.059 8.607a.75.75 0 1 1 .883-1.213l4.912 3.572a.25.25 0 0 0 .293 0l4.912-3.572a.75.75 0 1 1 .883 1.213l-4.913 3.572Zm9.79 5.037c-.546-.917-1.771-2.466-3.82-2.466s-3.273 1.549-3.82 2.466a1.289 1.289 0 0 0 0 1.319c.546.917 1.771 2.466 3.82 2.466s3.273-1.549 3.82-2.466a1.294 1.294 0 0 0 0-1.319Zm-3.8 1.909c-.689 0-1.255-.56-1.255-1.25s.555-1.25 1.245-1.25h.01a1.25 1.25 0 0 1 0 2.5Z"/></svg>
